X: 449
T:Sirba Munteneasca
O:Romania
W:presented by Mihai & Alexandru David, Gypsy Camp II
L: 1/8
M: 2/4
Q:1/4=112
K:C
|:"G"ddBG|"C"gge2|"G"d/c/d/c/ d/c/d/c/|"C"e4|\
"G"ddBG|"C"gge2|"G"d/c/d/c/ d/c/d/c/|"C"c4:|\
[eg][eg][fa][fa]|[e/g/][f/a/][e/g/][d/f/][c2e2]|
"G"[Bd][Bd][B/d/][d/f/][c/e/][d/f/]|"C"[c4e4]|\
[eg][eg][fa][fa]|[e/g/][f/a/][e/g/][d/f/][c2e2]|\
"G"[Bd][Bd][B/d/][d/f/][c/e/][d/f/]|"C"[E4c4]|\
"G"[Bd][Bd][GB][EG]|"C"[eg][eg][c2e2]|
"G"[B/d/][A/c/][B/d/][A/c/] [B/d/][A/c/][B/d/][A/c/]|"C"[c4e4]|\
"G"[Bd][Bd][GB][EG]|"C"[eg][eg][c2e2]|\
"G"[B/d/][A/c/][B/d/][A/c/] [B/d/][A/c/][B/d/][A/c/]|"C"[E4c4]\
|:"G"f/g/z/g/ g/g/f|"C"d/e/z/e/ e/e/e|"G" f/g/z/g/ g/g/f|"C"d/e/z/e/ e/e/e|
"G"dddd|"C"efed|"G"dddd|"C"efed:|



